src/images/icons/star-half.svg

<svg width="20" height="20" viewBox="0 0 20 20" fill="none" xmlns="http://www.w3.org/2000/svg">
<path d="M9.99984 1.83335C9.75073 1.83151 9.50622 1.90038 9.29469 2.03196C9.08316 2.16354 8.9133 2.35242 8.80484 2.57668L6.95317 6.33002L2.80984 6.93168C2.56339 6.96719 2.33181 7.071 2.14133 7.23135C1.95084 7.3917 1.80907 7.60218 1.73205 7.83896C1.65503 8.07573 1.64585 8.32935 1.70555 8.57107C1.76525 8.8128 1.89144 9.03298 2.06984 9.20668L5.06984 12.1283L4.3615 16.255C4.31937 16.5001 4.34664 16.7522 4.44023 16.9826C4.53382 17.213 4.69 17.4127 4.89111 17.559C5.09223 17.7054 5.33027 17.7925 5.57833 17.8107C5.82639 17.8288 6.07457 17.7772 6.29484 17.6617L9.99984 15.7133V1.83335Z" fill="#FFAD33"/>
<path opacity="0.25" d="M10 1.83595C10.2491 1.83404 10.5001 2.00001 10.5001 2.00001C10.5001 2.00001 11.0866 2.20807 11.195 2.44195L13.0467 6.35634L17.1901 6.98383C17.4366 7.02086 17.6682 7.12912 17.8587 7.29635C18.0492 7.46358 18.1909 7.68309 18.268 7.93003C18.345 8.17697 18.3542 8.44147 18.2945 8.69357C18.2347 8.94567 18.1086 9.1753 17.9302 9.35645L14.9301 12.4035L15.6384 16.7072C15.6806 16.9629 15.6533 17.2257 15.5597 17.466C15.4661 17.7064 15.3099 17.9146 15.1088 18.0672C14.9077 18.2198 14.6697 18.3107 14.4216 18.3296C14.1735 18.3486 13.9253 18.2947 13.7051 18.1743L10 16.1423V1.83595Z" fill="black"/>
</svg>

<svg width="20" height="20" fill="none" xmlns="http://www.w3.org/2000/svg"><path d="M10 1.833a1.317 1.317 0 0 0-1.195.744L6.953 6.33l-4.143.602a1.333 1.333 0 0 0-.74 2.275l3 2.921-.708 4.127a1.333 1.333 0 0 0 1.933 1.407L10 15.713V1.833Z" fill="#FFAD33"/><path opacity=".25" d="M10 1.836c.25-.002.5.164.5.164s.587.208.695.442l1.852 3.914 4.143.628c.247.037.478.145.669.312.19.168.332.387.409.634.077.247.086.511.026.764-.06.252-.185.481-.364.662l-3 3.047.708 4.304c.043.256.015.519-.078.759-.094.24-.25.449-.451.601a1.287 1.287 0 0 1-1.404.107L10 16.142V1.836Z" fill="#000"/></svg>
